X:1
T:Title
%%score { ( 1 3 ) | ( 2 4 ) }
L:1/8
Q:1/4=100
M:6/8
K:Bb
V:1 treble nm="Grand Piano"
V:3 treble 
V:2 bass 
V:4 bass 
V:1
 G^FG _A2 G | [_A,DF]3 [B,DG]3 | [G,E]3 [B,DF]3 | G6 | BAB c2 B | G3 B3 | A3 c3 | [DB]6 | %8
w: W.~H.~Jude * * * *||||||||
 FG_A [FB]2 [DF] | _A3 G3 | BAB c2 B | _A6 | edc B2 A | B2 G z2 ^F[Q:1/4=99][Q:1/4=97] | %14
w: ||||||
 [B,EG]3 .[_A,DF]3[Q:1/4=96][Q:1/4=94][Q:1/4=93][Q:1/4=91][Q:1/4=90][Q:1/4=88][Q:1/4=87][Q:1/4=85][Q:1/4=84][Q:1/4=82][Q:1/4=81][Q:1/4=79][Q:1/4=78][Q:1/4=76] | %15
w: |
 [B,E]6 |] %16
w: |
V:2
 [E,B,E][E,A,E][E,B,E] [E,CE]2 [E,B,E] | B,,3 B,,3 | C,3 B,,3 | [E,B,E]6 | %4
 [E,G,E][E,^F,E][E,G,E] [E,_A,E]2 [E,G,E] | [E,B,E]3 [G,B,E]3 | [F,CE]3 [F,A,E]3 | [B,,B,]6 | %8
 [_A,B,D][G,B,E][F,B,D] [D,B,]2 [B,,B,] | [E,CE]3 [E,B,E]3 | [G,_DE][G,DE][G,DE] [G,DE]2 [G,DE] | %11
 [_A,CE]6 | [_A,C_A][A,DA][A,EA] [B,EG]2 [CE^F] | [B,EG]2[K:bass] [E,B,E] A,2- [=B,,A,] | %14
 B,,3 z B,2 | z3 G,3 |] %16
V:3
 x6 | x6 | x6 | x6 | x6 | x6 | x6 | x6 | x6 | x6 | x6 | x6 | x6 | z3 E3 | x6 | _A,3 z3 |] %16
V:4
 x6 | x6 | x6 | x6 | x6 | x6 | x6 | x6 | x6 | x6 | x6 | x6 | x6 | z3[K:bass] .C,3 | z3 B,,3 | %15
 E,6 |] %16

